assets/icons/ic_solana_circle.svg

<svg fill="none" height="32" viewBox="0 0 33 32" width="33" xmlns="http://www.w3.org/2000/svg"><linearGradient id="a" gradientUnits="userSpaceOnUse" x1="8.14624" x2="25.6782" y1="24.7659" y2="7.23395"><stop offset="0" stop-color="#9945ff"/><stop offset=".2" stop-color="#7962e7"/><stop offset="1" stop-color="#00d18c"/></linearGradient><clipPath id="b"><path d="m.912109 0h32v32h-32z"/></clipPath><clipPath id="c"><path d="m.912109 0h31.9787v32h-31.9787z"/></clipPath><g clip-path="url(#b)"><path d="m16.9121 32c8.8366 0 16-7.1634 16-16 0-8.83656-7.1634-16-16-16-8.83655 0-15.999991 7.16344-15.999991 16 0 8.8366 7.163441 16 15.999991 16z" fill="#f1f5f9"/><path d="m10.7859 20.4102c.0605-.0663.1343-.1193.2165-.1554.082-.0359.1704-.0546.2598-.055l14.6624.0121c.0625 0 .1236.0182.176.0523.0523.0342.0936.0828.1188.14.0252.0571.0332.1204.0231.1821-.0102.0616-.038.119-.0802.1651l-3.1225 3.4382c-.0603.0663-.1338.1193-.2159.1556-.082.0362-.1707.0549-.2604.0548l-14.66192-.0121c-.0624-.0002-.1234-.0185-.17562-.0527-.05221-.0341-.0934-.0827-.11856-.1398s-.03322-.1203-.0232-.1819.03769-.1189.07966-.1651zm15.3751-2.8618c.0422.0461.07.1035.0802.1652.0101.0616.0021.1249-.0231.1821s-.0665.1058-.1188.1399c-.0524.0342-.1135.0523-.176.0524l-14.6619.0121c-.0897 0-.1784-.0187-.2604-.0549-.0821-.0363-.1556-.0892-.216-.1556l-3.12158-3.4399c-.04197-.0462-.06965-.1037-.07967-.1654-.01015-.0615-.00217-.1248.02298-.1819.02514-.0571.06635-.1057.11862-.1398.05232-.0341.11334-.0524.1758-.0528l14.66235-.0117c.0897-.0002.1785.0184.2605.0547.0821.0362.1556.0893.2158.1557zm-15.3751-9.7381c.0603-.06644.1338-.11949.2158-.15574.0821-.03625.1708-.05489.2605-.05471l14.6624.01213c.0624.00007.1235.01828.1758.05241s.0935.08272.1187.13985c.0251.05702.0332.12013.0231.18164-.0101.0615-.0378.11875-.0799.16477l-3.1225 3.43815c-.0603.0663-.1338.1193-.2159.1556-.082.0362-.1707.0549-.2604.0549l-14.66192-.0122c-.0625 0-.12365-.0182-.17595-.0524s-.09348-.083-.1185-.1403c-.02494-.057-.03286-.1201-.0228-.1816.01007-.0614.03768-.1187.07953-.1648z" fill="url(#a)"/><g clip-path="url(#c)"><path d="m26.7631 5.48938h-19.74467v17.95742h19.74467z" fill="#fff"/><path clip-rule="evenodd" d="m32.8802 16c0 8.8249-7.1539 15.9787-15.9787 15.9787-8.82486 0-15.978771-7.1538-15.978771-15.9787 0-8.82484 7.153911-15.9787598 15.978771-15.9787598 8.8248 0 15.9787 7.1539198 15.9787 15.9787598zm-20.5067 6.3587h-3.10098c-.65162 0-.97349 0-1.16975-.1255-.21198-.1375-.34151-.3652-.35721-.6164-.01179-.2315.14917-.5142.47104-1.0795l7.6568-13.49617c.3258-.5731.4907-.85966.6987-.96563.2238-.11383.4907-.11383.7144 0 .2081.10597.373.39253.6987.96563l1.5741 2.74775.008.01402c.3519.6148.5304.9266.6083 1.2539.0863.3572.0863.734 0 1.0912-.0785.3297-.2551.6438-.6124 1.2679l-4.0219 7.1096-.0104.0183c-.3542.6198-.5337.934-.7825 1.1711-.2709.2591-.5967.4474-.9539.5536-.3258.0902-.6908.0902-1.421.0902zm7.8311 0h4.4434c.6556 0 .9854 0 1.1818-.1294.2119-.1374.3453-.3691.3572-.6202.0113-.224-.1462-.4957-.4547-1.0281-.0106-.0182-.0213-.0366-.0321-.0554l-2.2258-3.8076-.0253-.0428c-.3128-.5289-.4706-.796-.6734-.8992-.2236-.1139-.4868-.1139-.7104 0-.2042.1059-.369.3846-.6948.946l-2.2179 3.8076-.0076.0131c-.3246.5604-.4869.8405-.4752 1.0702.0157.2513.1453.4828.3572.6203.1924.1255.5221.1255 1.1776.1255z" fill="#e84142" fill-rule="evenodd"/></g></g></svg>

<svg width="33" height="32" viewBox="0 0 33 32" fill="none" xmlns="http://www.w3.org/2000/svg">
<g clip-path="url(#clip0_531_6657)">
<path d="M16.9121 32C25.7487 32 32.9121 24.8366 32.9121 16C32.9121 7.16344 25.7487 0 16.9121 0C8.07555 0 0.912109 7.16344 0.912109 16C0.912109 24.8366 8.07555 32 16.9121 32Z" fill="#F1F5F9"/>
<path d="M10.7859 20.4102C10.8464 20.3439 10.9202 20.2909 11.0024 20.2548C11.0844 20.2189 11.1728 20.2002 11.2622 20.1998L25.9246 20.2119C25.9871 20.2119 26.0482 20.2301 26.1006 20.2642C26.1529 20.2984 26.1942 20.347 26.2194 20.4042C26.2446 20.4613 26.2526 20.5246 26.2425 20.5863C26.2323 20.6479 26.2045 20.7053 26.1623 20.7514L23.0398 24.1896C22.9795 24.2559 22.906 24.3089 22.8239 24.3452C22.7419 24.3814 22.6532 24.4001 22.5635 24.4L7.90158 24.3879C7.83918 24.3877 7.77818 24.3694 7.72596 24.3352C7.67375 24.3011 7.63256 24.2525 7.6074 24.1954C7.58224 24.1383 7.57418 24.0751 7.5842 24.0135C7.59422 23.9519 7.62189 23.8946 7.66386 23.8484L10.7859 20.4102ZM26.161 17.5484C26.2032 17.5945 26.231 17.6519 26.2412 17.7136C26.2513 17.7752 26.2433 17.8385 26.2181 17.8957C26.1929 17.9529 26.1516 18.0015 26.0993 18.0356C26.0469 18.0698 25.9858 18.0879 25.9233 18.088L11.2614 18.1001C11.1717 18.1001 11.083 18.0814 11.001 18.0452C10.9189 18.0089 10.8454 17.956 10.785 17.8896L7.66342 14.4497C7.62145 14.4035 7.59377 14.346 7.58375 14.2843C7.5736 14.2228 7.58158 14.1595 7.60673 14.1024C7.63187 14.0453 7.67308 13.9967 7.72535 13.9626C7.77767 13.9285 7.83869 13.9102 7.90115 13.9098L22.5635 13.8981C22.6532 13.8979 22.742 13.9165 22.824 13.9528C22.9061 13.989 22.9796 14.0421 23.0398 14.1085L26.161 17.5484ZM10.7859 7.8103C10.8462 7.74386 10.9197 7.69081 11.0017 7.65456C11.0838 7.61831 11.1725 7.59967 11.2622 7.59985L25.9246 7.61198C25.987 7.61205 26.0481 7.63026 26.1004 7.66439C26.1527 7.69852 26.1939 7.74711 26.2191 7.80424C26.2442 7.86126 26.2523 7.92437 26.2422 7.98588C26.2321 8.04738 26.2044 8.10463 26.1623 8.15065L23.0398 11.5888C22.9795 11.6551 22.906 11.7081 22.8239 11.7444C22.7419 11.7806 22.6532 11.7993 22.5635 11.7993L7.90158 11.7871C7.83908 11.7871 7.77793 11.7689 7.72563 11.7347C7.67333 11.7005 7.63215 11.6517 7.60713 11.5944C7.58219 11.5374 7.57427 11.4743 7.58433 11.4128C7.5944 11.3514 7.62201 11.2941 7.66386 11.248L10.7859 7.8103Z" fill="url(#paint0_linear_531_6657)"/>
<g clip-path="url(#clip1_531_6657)">
<path d="M26.7631 5.48938H7.01843V23.4468H26.7631V5.48938Z" fill="white"/>
<path fill-rule="evenodd" clip-rule="evenodd" d="M32.8802 16C32.8802 24.8249 25.7263 31.9787 16.9015 31.9787C8.07664 31.9787 0.922729 24.8249 0.922729 16C0.922729 7.17516 8.07664 0.0212402 16.9015 0.0212402C25.7263 0.0212402 32.8802 7.17516 32.8802 16ZM12.3735 22.3587H9.27252C8.6209 22.3587 8.29903 22.3587 8.10277 22.2332C7.89079 22.0957 7.76126 21.868 7.74556 21.6168C7.73377 21.3853 7.89473 21.1026 8.2166 20.5373L15.8734 7.04113C16.1992 6.46803 16.3641 6.18147 16.5721 6.0755C16.7959 5.96167 17.0628 5.96167 17.2865 6.0755C17.4946 6.18147 17.6595 6.46803 17.9852 7.04113L19.5593 9.78888L19.5673 9.8029C19.9192 10.4177 20.0977 10.7295 20.1756 11.0568C20.2619 11.414 20.2619 11.7908 20.1756 12.148C20.0971 12.4777 19.9205 12.7918 19.5632 13.4159L15.5413 20.5255L15.5309 20.5438C15.1767 21.1636 14.9972 21.4778 14.7484 21.7149C14.4775 21.974 14.1517 22.1623 13.7945 22.2685C13.4687 22.3587 13.1037 22.3587 12.3735 22.3587ZM20.2046 22.3587H24.648C25.3036 22.3587 25.6334 22.3587 25.8298 22.2293C26.0417 22.0919 26.1751 21.8602 26.187 21.6091C26.1983 21.3851 26.0408 21.1134 25.7323 20.581C25.7217 20.5628 25.711 20.5444 25.7002 20.5256L23.4744 16.718L23.4491 16.6752C23.1363 16.1463 22.9785 15.8792 22.7757 15.776C22.5521 15.6621 22.2889 15.6621 22.0653 15.776C21.8611 15.8819 21.6963 16.1606 21.3705 16.722L19.1526 20.5296L19.145 20.5427C18.8204 21.1031 18.6581 21.3832 18.6698 21.6129C18.6855 21.8642 18.8151 22.0957 19.027 22.2332C19.2194 22.3587 19.5491 22.3587 20.2046 22.3587Z" fill="#E84142"/>
</g>
</g>
<defs>
<linearGradient id="paint0_linear_531_6657" x1="8.14624" y1="24.7659" x2="25.6782" y2="7.23395" gradientUnits="userSpaceOnUse">
<stop stop-color="#9945FF"/>
<stop offset="0.2" stop-color="#7962E7"/>
<stop offset="1" stop-color="#00D18C"/>
</linearGradient>
<clipPath id="clip0_531_6657">
<rect width="32" height="32" fill="white" transform="translate(0.912109)"/>
</clipPath>
<clipPath id="clip1_531_6657">
<rect width="31.9787" height="32" fill="white" transform="translate(0.912109)"/>
</clipPath>
</defs>
</svg>
